(
p = [
"/Users/jildertviet/Downloads/Ivy Audio - Piano in 162 sfz/Piano in 162 Samples/Close/PedalOffClose/20-PedalOffForte2Close.flac",
"/Users/jildertviet/Downloads/Ivy Audio - Piano in 162 sfz/Piano in 162 Samples/Close/PedalOffClose/20-PedalOffMezzoForte2Close.flac",
"/Users/jildertviet/Downloads/Ivy Audio - Piano in 162 sfz/Piano in 162 Samples/Close/PedalOffClose/20-PedalOffMezzoPiano2Close.flac",
"/Users/jildertviet/Downloads/Ivy Audio - Piano in 162 sfz/Piano in 162 Samples/Close/PedalOffClose/20-PedalOffPianissimo2Close.flac",
"/Users/jildertviet/Downloads/Ivy Audio - Piano in 162 sfz/Piano in 162 Samples/Close/PedalOffClose/20-PedalOffPiano2Close.flac",
"/Users/jildertviet/Downloads/Ivy Audio - Piano in 162 sfz/Piano in 162 Samples/Close/PedalOffClose/21-PedalOffForte2Close.flac",
"/Users/jildertviet/Downloads/Ivy Audio - Piano in 162 sfz/Piano in 162 Samples/Close/PedalOffClose/21-PedalOffMezzoForte2Close.flac",
"/Users/jildertviet/Downloads/Ivy Audio - Piano in 162 sfz/Piano in 162 Samples/Close/PedalOffClose/21-PedalOffMezzoPiano2Close.flac",
"/Users/jildertviet/Downloads/Ivy Audio - Piano in 162 sfz/Piano in 162 Samples/Close/PedalOffClose/21-PedalOffPianissimo2Close.flac",
"/Users/jildertviet/Downloads/Ivy Audio - Piano in 162 sfz/Piano in 162 Samples/Close/PedalOffClose/21-PedalOffPiano2Close.flac",
"/Users/jildertviet/Downloads/Ivy Audio - Piano in 162 sfz/Piano in 162 Samples/Close/PedalOffClose/22-PedalOffForte2Close.flac",
"/Users/jildertviet/Downloads/Ivy Audio - Piano in 162 sfz/Piano in 162 Samples/Close/PedalOffClose/22-PedalOffMezzoForte2Close.flac",
"/Users/jildertviet/Downloads/Ivy Audio - Piano in 162 sfz/Piano in 162 Samples/Close/PedalOffClose/22-PedalOffMezzoPiano2Close.flac",
"/Users/jildertviet/Downloads/Ivy Audio - Piano in 162 sfz/Piano in 162 Samples/Close/PedalOffClose/22-PedalOffPianissimo2Close.flac",
"/Users/jildertviet/Downloads/Ivy Audio - Piano in 162 sfz/Piano in 162 Samples/Close/PedalOffClose/22-PedalOffPiano2Close.flac",
"/Users/jildertviet/Downloads/Ivy Audio - Piano in 162 sfz/Piano in 162 Samples/Close/PedalOffClose/23-PedalOffForte2Close.flac",
"/Users/jildertviet/Downloads/Ivy Audio - Piano in 162 sfz/Piano in 162 Samples/Close/PedalOffClose/23-PedalOffMezzoForte2Close.flac",
"/Users/jildertviet/Downloads/Ivy Audio - Piano in 162 sfz/Piano in 162 Samples/Close/PedalOffClose/23-PedalOffMezzoPiano2Close.flac",
"/Users/jildertviet/Downloads/Ivy Audio - Piano in 162 sfz/Piano in 162 Samples/Close/PedalOffClose/23-PedalOffPianissimo2Close.flac",
"/Users/jildertviet/Downloads/Ivy Audio - Piano in 162 sfz/Piano in 162 Samples/Close/PedalOffClose/23-PedalOffPiano2Close.flac",
"/Users/jildertviet/Downloads/Ivy Audio - Piano in 162 sfz/Piano in 162 Samples/Close/PedalOffClose/24-PedalOffForte2Close.flac",
"/Users/jildertviet/Downloads/Ivy Audio - Piano in 162 sfz/Piano in 162 Samples/Close/PedalOffClose/24-PedalOffMezzoForte2Close.flac",
"/Users/jildertviet/Downloads/Ivy Audio - Piano in 162 sfz/Piano in 162 Samples/Close/PedalOffClose/24-PedalOffMezzoPiano2Close.flac",
"/Users/jildertviet/Downloads/Ivy Audio - Piano in 162 sfz/Piano in 162 Samples/Close/PedalOffClose/24-PedalOffPianissimo2Close.flac",
"/Users/jildertviet/Downloads/Ivy Audio - Piano in 162 sfz/Piano in 162 Samples/Close/PedalOffClose/24-PedalOffPiano2Close.flac",
"/Users/jildertviet/Downloads/Ivy Audio - Piano in 162 sfz/Piano in 162 Samples/Close/PedalOffClose/25-PedalOffForte2Close.flac",
"/Users/jildertviet/Downloads/Ivy Audio - Piano in 162 sfz/Piano in 162 Samples/Close/PedalOffClose/25-PedalOffMezzoForte2Close.flac",
"/Users/jildertviet/Downloads/Ivy Audio - Piano in 162 sfz/Piano in 162 Samples/Close/PedalOffClose/25-PedalOffMezzoPiano2Close.flac",
"/Users/jildertviet/Downloads/Ivy Audio - Piano in 162 sfz/Piano in 162 Samples/Close/PedalOffClose/25-PedalOffPianissimo2Close.flac",
"/Users/jildertviet/Downloads/Ivy Audio - Piano in 162 sfz/Piano in 162 Samples/Close/PedalOffClose/25-PedalOffPiano2Close.flac",
"/Users/jildertviet/Downloads/Ivy Audio - Piano in 162 sfz/Piano in 162 Samples/Close/PedalOffClose/26-PedalOffForte2Close.flac",
"/Users/jildertviet/Downloads/Ivy Audio - Piano in 162 sfz/Piano in 162 Samples/Close/PedalOffClose/26-PedalOffMezzoForte2Close.flac",
"/Users/jildertviet/Downloads/Ivy Audio - Piano in 162 sfz/Piano in 162 Samples/Close/PedalOffClose/26-PedalOffMezzoPiano2Close.flac",
"/Users/jildertviet/Downloads/Ivy Audio - Piano in 162 sfz/Piano in 162 Samples/Close/PedalOffClose/26-PedalOffPianissimo2Close.flac",
"/Users/jildertviet/Downloads/Ivy Audio - Piano in 162 sfz/Piano in 162 Samples/Close/PedalOffClose/26-PedalOffPiano2Close.flac",
"/Users/jildertviet/Downloads/Ivy Audio - Piano in 162 sfz/Piano in 162 Samples/Close/PedalOffClose/27-PedalOffForte2Close.flac",
"/Users/jildertviet/Downloads/Ivy Audio - Piano in 162 sfz/Piano in 162 Samples/Close/PedalOffClose/27-PedalOffMezzoForte2Close.flac",
"/Users/jildertviet/Downloads/Ivy Audio - Piano in 162 sfz/Piano in 162 Samples/Close/PedalOffClose/27-PedalOffMezzoPiano2Close.flac",
"/Users/jildertviet/Downloads/Ivy Audio - Piano in 162 sfz/Piano in 162 Samples/Close/PedalOffClose/27-PedalOffPianissimo2Close.flac",
"/Users/jildertviet/Downloads/Ivy Audio - Piano in 162 sfz/Piano in 162 Samples/Close/PedalOffClose/27-PedalOffPiano2Close.flac",
"/Users/jildertviet/Downloads/Ivy Audio - Piano in 162 sfz/Piano in 162 Samples/Close/PedalOffClose/28-PedalOffForte2Close.flac",
"/Users/jildertviet/Downloads/Ivy Audio - Piano in 162 sfz/Piano in 162 Samples/Close/PedalOffClose/28-PedalOffMezzoForte2Close.flac",
"/Users/jildertviet/Downloads/Ivy Audio - Piano in 162 sfz/Piano in 162 Samples/Close/PedalOffClose/28-PedalOffMezzoPiano2Close.flac",
"/Users/jildertviet/Downloads/Ivy Audio - Piano in 162 sfz/Piano in 162 Samples/Close/PedalOffClose/28-PedalOffPianissimo2Close.flac",
"/Users/jildertviet/Downloads/Ivy Audio - Piano in 162 sfz/Piano in 162 Samples/Close/PedalOffClose/28-PedalOffPiano2Close.flac",
"/Users/jildertviet/Downloads/Ivy Audio - Piano in 162 sfz/Piano in 162 Samples/Close/PedalOffClose/29-PedalOffForte2Close.flac",
"/Users/jildertviet/Downloads/Ivy Audio - Piano in 162 sfz/Piano in 162 Samples/Close/PedalOffClose/29-PedalOffMezzoForte2Close.flac",
"/Users/jildertviet/Downloads/Ivy Audio - Piano in 162 sfz/Piano in 162 Samples/Close/PedalOffClose/29-PedalOffMezzoPiano2Close.flac",
"/Users/jildertviet/Downloads/Ivy Audio - Piano in 162 sfz/Piano in 162 Samples/Close/PedalOffClose/29-PedalOffPianissimo2Close.flac",
"/Users/jildertviet/Downloads/Ivy Audio - Piano in 162 sfz/Piano in 162 Samples/Close/PedalOffClose/29-PedalOffPiano2Close.flac",
"/Users/jildertviet/Downloads/Ivy Audio - Piano in 162 sfz/Piano in 162 Samples/Close/PedalOffClose/30-PedalOffForte2Close.flac",
"/Users/jildertviet/Downloads/Ivy Audio - Piano in 162 sfz/Piano in 162 Samples/Close/PedalOffClose/30-PedalOffMezzoForte2Close.flac",
"/Users/jildertviet/Downloads/Ivy Audio - Piano in 162 sfz/Piano in 162 Samples/Close/PedalOffClose/30-PedalOffMezzoPiano2Close.flac",
"/Users/jildertviet/Downloads/Ivy Audio - Piano in 162 sfz/Piano in 162 Samples/Close/PedalOffClose/30-PedalOffPianissimo2Close.flac",
"/Users/jildertviet/Downloads/Ivy Audio - Piano in 162 sfz/Piano in 162 Samples/Close/PedalOffClose/30-PedalOffPiano2Close.flac",
];
b = Array.fill(p.size, {|i| Buffer.read(s, p[i])});
) // Load all the samples

( // Play something (Pbind would be better)
{
	0.01.wait;
	inf.do{
		|i|
		{
			var buf, tremolo, env;
			env = EnvGen.kr(Env.linen(0.0002, [0.1, 2, 0.1].wrapAt(i * 3), 1, curve: 4), doneAction: 2);
			buf = PlayBuf.ar(2, (b[[2, 22, 24, 36, 47, 22, 24].wrapAt(i)]).bufnum, doneAction: 2, rate: 1) * 0.5;
			buf = buf * env;
		}.play;
		([1, 1, [2, 1, 1, 1].wrapAt(i)].wrapAt(i) * 0.5).wait;
	};
}.fork;
)